src/lib/packages/icons/src/assets/line/billiard-ball.svg

<svg xmlns="http://www.w3.org/2000/svg" width="24" height="24" fill="none"><path fill="currentColor" d="M12 1.25C6.07 1.25 1.25 6.07 1.25 12S6.07 22.75 12 22.75 22.75 17.93 22.75 12 17.93 1.25 12 1.25Zm0 20c-5.1 0-9.25-4.15-9.25-9.25S6.9 2.75 12 2.75 21.25 6.9 21.25 12 17.1 21.25 12 21.25Zm0-15.5c-3.45 0-6.25 2.8-6.25 6.25s2.8 6.25 6.25 6.25 6.25-2.8 6.25-6.25-2.8-6.25-6.25-6.25Zm0 11c-2.62 0-4.75-2.13-4.75-4.75S9.38 7.25 12 7.25s4.75 2.13 4.75 4.75-2.13 4.75-4.75 4.75Zm0-8.5c-1.24 0-2.25 1.01-2.25 2.25 0 .58.23 1.1.59 1.5-.36.4-.59.92-.59 1.5 0 1.24 1.01 2.25 2.25 2.25s2.25-1.01 2.25-2.25c0-.58-.23-1.1-.59-1.5.36-.4.59-.92.59-1.5 0-1.24-1.01-2.25-2.25-2.25Zm0 1.5c.41 0 .75.34.75.75s-.34.75-.75.75-.75-.34-.75-.75.34-.75.75-.75Zm0 4.5c-.41 0-.75-.34-.75-.75s.34-.75.75-.75.75.34.75.75-.34.75-.75.75Z"/></svg>

<svg width="24" height="24" viewBox="0 0 24 24" fill="none" xmlns="http://www.w3.org/2000/svg">
<path d="M12 1.25C6.07 1.25 1.25 6.07 1.25 12C1.25 17.93 6.07 22.75 12 22.75C17.93 22.75 22.75 17.93 22.75 12C22.75 6.07 17.93 1.25 12 1.25ZM12 21.25C6.9 21.25 2.75 17.1 2.75 12C2.75 6.9 6.9 2.75 12 2.75C17.1 2.75 21.25 6.9 21.25 12C21.25 17.1 17.1 21.25 12 21.25ZM12 5.75C8.55 5.75 5.75 8.55 5.75 12C5.75 15.45 8.55 18.25 12 18.25C15.45 18.25 18.25 15.45 18.25 12C18.25 8.55 15.45 5.75 12 5.75ZM12 16.75C9.38 16.75 7.25 14.62 7.25 12C7.25 9.38 9.38 7.25 12 7.25C14.62 7.25 16.75 9.38 16.75 12C16.75 14.62 14.62 16.75 12 16.75ZM12 8.25C10.76 8.25 9.75 9.26 9.75 10.5C9.75 11.08 9.98 11.6 10.34 12C9.98 12.4 9.75 12.92 9.75 13.5C9.75 14.74 10.76 15.75 12 15.75C13.24 15.75 14.25 14.74 14.25 13.5C14.25 12.92 14.02 12.4 13.66 12C14.02 11.6 14.25 11.08 14.25 10.5C14.25 9.26 13.24 8.25 12 8.25ZM12 9.75C12.41 9.75 12.75 10.09 12.75 10.5C12.75 10.91 12.41 11.25 12 11.25C11.59 11.25 11.25 10.91 11.25 10.5C11.25 10.09 11.59 9.75 12 9.75ZM12 14.25C11.59 14.25 11.25 13.91 11.25 13.5C11.25 13.09 11.59 12.75 12 12.75C12.41 12.75 12.75 13.09 12.75 13.5C12.75 13.91 12.41 14.25 12 14.25Z" fill="currentColor"/>
</svg>
